X:285
T: AUS FEUER IST DER GEIST GESCHAFFEN
N: B0337
O: Europa, Mitteleuropa, Deutschland
R: Trink - Lied
M: 4/4
L: 1/8
K: F
ccB | A3AA3A | cBB2z
BBA | G3Gc3B | B2A2z
ccB | A3AA3A | cBB2z
BBA | G3Gc3B | B2A2z
ccc | d3Be3c | f4z
ddd | c3FA2G2 | F4z

@@@ Tune index: 2088
